X:19
T:Allistrum's March
T:Alaisdrum's March
R:march
H:Cf. Allistrum's Polka, polka#120
H:Cf. O'Donnell's March, #1
H:Cf. #26, #27, #28. Cf. jig#407.
D:Chieftains
Z:id:hn-march-19
M:6/8
L:1/8
Q:3/8=110
K:D
Fdd fee | fdB BAG | Fdd fee | fdB B2A :| 
|: FEE FDD | FEd dBA | FEE FDD | FEd B2A :| 
|: d2f e2f | ded dBA | d2f e2f | ded dBA :| 
|: B2A B2F | B2A BEE | B2A B2F |1 B2A BEE :|2 B2A BAG || 
P:variation of 1st part
|: Fdd fee | fdd dBA | Fdd fee | fdB B2A :| 

